app/images/icons/link-icon.svg

<svg fill="none" height="26" viewBox="0 0 24 26" width="24" xmlns="http://www.w3.org/2000/svg"><g stroke="#fff" stroke-linecap="round" stroke-linejoin="round" stroke-width="1.5"><path d="m17.25 18.249-10.5-10.50001"/><path d="m16.265 13.021c1.2722-.0733 2.5152.3996 3.417 1.3l2.25 2.25c1.1368 1.1368 1.5808 2.7938 1.1647 4.3467s-1.6291 2.7659-3.182 3.182-3.2099-.0279-4.3467-1.1647l-2.25-2.25c-.9004-.9018-1.3733-2.1448-1.3-3.417"/><path d="m7.735 12.976c-1.27217.0732-2.51517-.3997-3.417-1.3l-2.25-2.25c-1.136816-1.13682-1.580794-2.79377-1.164689-4.3467.416109-1.55292 1.629079-2.76589 3.181999-3.182 1.55292-.4161 3.20987.02788 4.34669 1.1647l2.25 2.25c.8982.90283 1.3692 2.14561 1.295 3.417"/></g></svg>

<svg width="24" height="26" viewBox="0 0 24 26" fill="none" xmlns="http://www.w3.org/2000/svg">
<path d="M17.25 18.249L6.75 7.74899" stroke="white" stroke-width="1.5" stroke-linecap="round" stroke-linejoin="round"/>
<path d="M16.265 13.021C17.5372 12.9477 18.7802 13.4206 19.682 14.321L21.932 16.571C23.0688 17.7078 23.5128 19.3648 23.0967 20.9177C22.6806 22.4706 21.4676 23.6836 19.9147 24.0997C18.3618 24.5158 16.7048 24.0718 15.568 22.935L13.318 20.685C12.4176 19.7832 11.9447 18.5402 12.018 17.268" stroke="white" stroke-width="1.5" stroke-linecap="round" stroke-linejoin="round"/>
<path d="M7.735 12.976C6.46283 13.0492 5.21983 12.5763 4.318 11.676L2.068 9.426C0.931184 8.28918 0.487206 6.63223 0.903311 5.0793C1.31942 3.52638 2.53239 2.31341 4.08531 1.8973C5.63823 1.4812 7.29518 1.92518 8.432 3.062L10.682 5.312C11.5802 6.21483 12.0512 7.45761 11.977 8.729" stroke="white" stroke-width="1.5" stroke-linecap="round" stroke-linejoin="round"/>
</svg>
